X:34
T:What Shall We Do With the Baby-O
M:2/4
L:1/8
K:G
%
"G" DG G2 | "D" AA "G" B2 | dBBG | "D" AG "G" G2 | DGGG |
"D" AA "G" B2 | ddd B | "D" AG "G" G2 ||
"G" Bddd | "C" edgd | BddB | "D" AG "G" G2 |
Bd dd | "C" ed "G" d2 | g> e dB | "D" AG "G" G2 |]


